X:1
T:Title
%%score 1 { 2 | 3 }
L:1/8
Q:1/4=102
M:6/8
K:Ab
V:1 treble nm="Grand Piano, Soprano"
V:2 bass nm="Choir Pad, Frank,J. H. Waterbury 1871"
V:3 bass 
V:1
 [CE] [CE]2 [DF] [CE]2 | [CA] [Ec]2 [DB] [CA]2 | [EA] [FA]2 [FA] [FA]2 | [FA] [EG]2 [EB] [EA]2 | %4
w: By~Julius~Henry~Waterbury,~1871 * * *||||
 [Ac] [Ac]2 [Ac] [Ae]2 | [Ac] [GB]2 [GB] [Gd]2 | [GB] [FA]2 [EB] [Ec]2 | [CE] [DF]2 [EG] [EA]2- | %8
w: ||||
 [EA]6 |] %9
w: |
V:2
 A, A,2 A, A,2 | A, G,2 G, A,2 | C C2 C B,2 | B, B,2 D C2 | A, A,2 A, C2 | C B,2 B, B,2 | %6
 E C2 D A,2 | A, B,2 D C2- | C6 |] %9
V:3
 A,, A,,2 A,, A,,2 | A,, E,2 E, A,,2 | A, F,2 F, D,2 | D, E,2 E, A,,2 | z3 z A,2 | A, E,2 E, E,2 | %6
 E, F,2 .G,3 | C, D,2 E, A,,2- | A,,6 |] %9

